src/assets/images/comment-info.svg

<svg fill="none" height="16" viewBox="0 0 16 16" width="16" xmlns="http://www.w3.org/2000/svg"><path d="m9 4.33334c0 .19778-.05864.39112-.16853.55557-.10988.16445-.26606.29262-.44878.36831-.18273.07568-.38379.09549-.57778.0569-.19398-.03858-.37216-.13382-.51201-.27368-.13985-.13985-.2351-.31803-.27368-.51201-.03859-.19398-.01878-.39505.05691-.57778.07568-.18272.20386-.3389.3683-.44878.16445-.10988.35779-.16853.55557-.16853.26522 0 .51958.10535.70711.29289.18754.18754.29289.44189.29289.70711zm7 3.66666c0-1.58225-.4692-3.12896-1.3482-4.44456-.8791-1.31559-2.1285-2.34097-3.5903-2.946473-1.46184-.60550071-3.07037-.763927-4.62222-.455246-1.55185.308682-2.97731 1.070609-4.09613 2.189429s-1.880747 2.54428-2.189429 4.09613c-.308681 1.55185-.15025471 3.16038.455246 4.62222.605503 1.4618 1.630883 2.7112 2.946473 3.5903 1.3156.879 2.86231 1.3482 4.44456 1.3482h8zm-1.3333 0v6.6667h-6.6667c-1.31854 0-2.60747-.391-3.7038-1.1236-1.09633-.7325-1.95081-1.7737-2.45539-2.9919-.50459-1.21815-.63661-2.55859-.37937-3.8518.25723-1.2932.89217-2.48109 1.82452-3.41344s2.12024-1.56729 3.41344-1.82452c1.29321-.25724 2.63365-.12522 3.8518.37937 1.2182.50458 2.2594 1.35906 2.9919 2.45539.7326 1.09633 1.1236 2.38526 1.1236 3.7038zm-5.33336 0c0-.35362-.14048-.69276-.39053-.9428-.25004-.25005-.58918-.39053-.94281-.39053h-1.33333v1.33333h1.33333v4.6667h1.33334z" fill="#f9b96d"/></svg>

<svg width="16" height="16" viewBox="0 0 16 16" fill="none" xmlns="http://www.w3.org/2000/svg">
<g clipPath="url(#clip0_1084_304)">
<path d="M9 4.33334C9 4.53112 8.94136 4.72446 8.83147 4.88891C8.72159 5.05336 8.56541 5.18153 8.38269 5.25722C8.19996 5.3329 7.9989 5.35271 7.80491 5.31412C7.61093 5.27554 7.43275 5.1803 7.2929 5.04044C7.15305 4.90059 7.0578 4.72241 7.01922 4.52843C6.98063 4.33445 7.00044 4.13338 7.07613 3.95065C7.15181 3.76793 7.27999 3.61175 7.44443 3.50187C7.60888 3.39199 7.80222 3.33334 8 3.33334C8.26522 3.33334 8.51958 3.43869 8.70711 3.62623C8.89465 3.81377 9 4.06812 9 4.33334ZM16 8C16 6.41775 15.5308 4.87104 14.6518 3.55544C13.7727 2.23985 12.5233 1.21447 11.0615 0.608967C9.59966 0.00346629 7.99113 -0.15496 6.43928 0.153721C4.88743 0.462403 3.46197 1.22433 2.34315 2.34315C1.22433 3.46197 0.462403 4.88743 0.153721 6.43928C-0.15496 7.99113 0.00346629 9.59966 0.608967 11.0615C1.21447 12.5233 2.23985 13.7727 3.55544 14.6518C4.87104 15.5308 6.41775 16 8 16H16V8ZM14.6667 8V14.6667H8C6.68146 14.6667 5.39253 14.2757 4.2962 13.5431C3.19987 12.8106 2.34539 11.7694 1.84081 10.5512C1.33622 9.33305 1.2042 7.99261 1.46144 6.6994C1.71867 5.4062 2.35361 4.21831 3.28596 3.28596C4.21831 2.35361 5.4062 1.71867 6.6994 1.46144C7.99261 1.2042 9.33305 1.33622 10.5512 1.84081C11.7694 2.34539 12.8106 3.19987 13.5431 4.2962C14.2757 5.39253 14.6667 6.68146 14.6667 8ZM9.33334 8C9.33334 7.64638 9.19286 7.30724 8.94281 7.0572C8.69277 6.80715 8.35363 6.66667 8 6.66667H6.66667V8H8V12.6667H9.33334V8Z" fill="#F9B96D"/>
</g>
<defs>
<clipPath id="clip0_1084_304">
<rect width="16" height="16" fill="white"/>
</clipPath>
</defs>
</svg>
